src/assets/images/placeholder.svg

<svg xmlns="http://www.w3.org/2000/svg" viewBox="0 0 50 50">
    <path stroke="currentColor" d="M 17 2 L 17 4 L 23 4 L 23 2 L 17 2 z M 28 2 L 28 4 L 34 4 L 34 2 L 28 2 z M 10.6875 2.15625 C 6.3218962 2.8973077 2.8973077 6.3218962 2.15625 10.6875 L 4.125 11.03125 C 4.7239423 7.5028538 7.5028538 4.7239423 11.03125 4.125 L 10.6875 2.15625 z M 39.3125 2.15625 L 38.96875 4.125 C 42.497146 4.7239423 45.276058 7.5028538 45.875 11.03125 L 47.84375 10.6875 C 47.102692 6.3218962 43.678104 2.8973077 39.3125 2.15625 z M 2 16 L 2 22 L 4 22 L 4 16 L 2 16 z M 46 17 L 46 23 L 48 23 L 48 17 L 46 17 z M 2 27 L 2 33 L 4 33 L 4 27 L 2 27 z M 46 28 L 46 34 L 48 34 L 48 28 L 46 28 z M 4.125 38.96875 L 2.15625 39.3125 C 2.8973077 43.678104 6.3218962 47.102692 10.6875 47.84375 L 11.03125 45.875 C 7.5028538 45.276058 4.7239423 42.497146 4.125 38.96875 z M 45.875 38.96875 C 45.276058 42.497146 42.497146 45.276058 38.96875 45.875 L 39.3125 47.84375 C 43.678104 47.102692 47.102692 43.678104 47.84375 39.3125 L 45.875 38.96875 z M 16 46 L 16 48 L 22 48 L 22 46 L 16 46 z M 27 46 L 27 48 L 33 48 L 33 46 L 27 46 z"/>
</svg>

<svg xmlns="http://www.w3.org/2000/svg" width="47" height="47" viewBox="0 0 47 47">
  <path id="placeholder" d="M17,2V4h6V2ZM28,2V4h6V2Zm-17.312.156a10.427,10.427,0,0,0-8.531,8.531l1.969.344a8.452,8.452,0,0,1,6.906-6.906Zm28.625,0-.344,1.969a8.452,8.452,0,0,1,6.906,6.906l1.969-.344A10.427,10.427,0,0,0,39.313,2.156ZM2,16v6H4V16Zm44,1v6h2V17ZM2,27v6H4V27Zm44,1v6h2V28ZM4.125,38.969l-1.969.344a10.427,10.427,0,0,0,8.531,8.531l.344-1.969A8.452,8.452,0,0,1,4.125,38.969Zm41.75,0a8.452,8.452,0,0,1-6.906,6.906l.344,1.969a10.427,10.427,0,0,0,8.531-8.531ZM16,46v2h6V46Zm11,0v2h6V46Z" transform="translate(-1.5 -1.5)" fill="#d5d800" stroke="#d5d800" stroke-width="1"/>
</svg>
